!!!COM: Beethoven, Ludwig van
!!!CDT: 1770///-1827///
!!!ODT: 1826///
!!!OTL: String Quartet No. 16 in F Major, Op. 135
!!!OPS: Op. 135
!!!OMV: Mvmt. 4
!!!OMD: Grave ma non troppo tratto
!!!OMD: Der schwer gefa&szlig;te Entschlu&szlig;
!!!PDT: 1827///
!!!PPP: Berlin and Paris
!!!ODE: Johann Wolfmeier gewidmet
!!!MPD: 1828/03/28/
!!!ONB: grace notes written out with durations.
**kern	**kern	**kern	**kern
*staff4	*staff3	*staff2	*staff1
*Icello	*Iviola	*Ivioln	*Ivioln
*>[A,B,B1,B,B2,C,C1,C,C2,D]	*>[A,B,B1,B,B2,C,C1,C,C2,D]	*>[A,B,B1,B,B2,C,C1,C,C2,D]	*>[A,B,B1,B,B2,C,C1,C,C2,D]
*>norep[A,B,B2,C,C2,D]	*>norep[A,B,B2,C,C2,D]	*>norep[A,B,B2,C,C2,D]	*>norep[A,B,B2,C,C2,D]
*>A	*>A	*>A	*>A
*clefF4	*clefC3	*clefG2	*clefG2
*F:	*F:	*F:	*F:
*k[b-e-a-d-]	*k[b-e-a-d-]	*k[b-e-a-d-]	*k[b-e-a-d-]
*f:	*f:	*f:	*f:
*M3/2	*M3/2	*M3/2	*M3/2
*MM80	*MM80	*MM80	*MM80
=1-	=1-	=1-	=1-
4.GG/	4.G/	1.r	2r
8EEn/	8En/	.	.
2AA-/	2A-/	.	2r
2r	2r	.	[2cc\
=2	=2	=2	=2
1.r	[2c\	2r	(8cc/L]
.	.	.	8b-/
.	.	.	8a-/
.	.	.	8g/J
.	(8c/L]	[2cc\	8f\L
.	8B-/	.	8a-\
.	8A-/	.	8cc\
.	8G/J	.	8een\J
.	8F/L	(8cc/L]	4ff\)
.	8A-/	8b-/	.
.	8c/	8a-/	4r
.	8f/J)	8g/J)	.
=3	=3	=3	=3
4.C/	4.c\	4f/	2r
.	.	4r	.
8AAn/	8An/	.	.
2D-\	2d-\	2r	2r
2r	2r	2r	[2ff\
=4	=4	=4	=4
2r	2r	[2f/	(8ff\L]
.	.	.	8ee-\
.	.	.	8dd-\
.	.	.	8cc\J
2r	[2f\	(8f/L]	8b-\L
.	.	8e-/	8dd-\
.	.	8d-/	8ff\
.	.	8c/J	8aan\J
2A-\	8f\L]	8B-/L	4bb-\)
.	(8f\	8dn/	.
.	8dn\	8f/	4r
.	8B-\J)	8b-/J)	.
=5	=5	=5	=5
8A-\L	8B-\L 8dn\	8f/L 8ddn/	8bb-\L
8A-\J	8B-\J 8d\	8f/J 8dd/	8bb-\J
4A-\	4B-\ 4d\	4f/ 4dd/	4bb-\
2r	2r	2r	2r
2r	2r	2r	2r
=6	=6	=6	=6
8GG/L	8d-\L	8b-\L 8een\	8eeen\L
8GG/J	8d-\J	8b-\J 8ee\	8eee\J
4GG/	4d-\	4b-\ 4ee\	4eee\
2r	2r	2r	2r
2r	2r	2r	2r
=7	=7	=7	=7
4.D-\	4.d-\	2r	2r
8BB-/	8B-/	.	.
1En	1en	8dd-\L 8bb-\	8ggg\L
.	.	8dd-\J 8bb-\	8ggg\J
.	.	4dd-\ 4bb-\	4ggg\
.	.	2r	2r
=8	=8	=8	=8
4.En\	4.en\	2r	2r
8C/	8c\	.	.
1F	1f	8cc\L 8aa-\	8aaa-\L
.	.	8cc\J 8aa-\	8aaa-\J
.	.	4cc\ 4aa-\	4aaa-\
.	.	2r	2r
=9	=9	=9	=9
4.F\	4.f\	2r	2r
8Dn\	8dn\	.	.
1G	1g	8b-\L 8een\	8ddd-\L
.	.	8b-\J 8ee\	8ddd-\J
.	.	4b-\ 4ee\	4ddd-\
.	.	2r	2r
=10	=10	=10	=10
8CC/L	8C/L	2r	2r
8CC/J	8C/J	.	.
4CC/	4C/	.	.
2r	2r	8gg\L 8bb-\	8een\L 8ddd-\
.	.	8gg\J 8bb-\	8ee\J 8ddd-\
.	.	4gg\ 4bb-\	4ee\ 4ddd-\
2r	2r	2r	2r
=11	=11	=11	=11
8CC/L	8C/L	2r	2r
8CC/J	8C/J	.	.
4CC/	4C/	.	.
2r	2r	8gg\L 8bb-\	8een\L 8ddd-\
.	.	8gg\J 8bb-\	8ee\J 8ddd-\
.	.	4gg\ 4bb-\	4ee\ 4ddd-\
2r	2r	2r	2r
=12	=12	=12	=12
8CC/L	8C/L	2r	2r
8CC/J	8C/J	.	.
4CC/	4C/	.	.
2r	2r	8c/L	8cc\L
.	.	8c/J	8cc\J
.	.	[4c/	[4cc\
4r;	4r;	4c;/]	4cc;\]
*MM320	*MM320	*MM320	*MM320
4r	4r	4an/	4aan\
=13	=13	=13	=13
*k[b-]	*k[b-]	*k[b-]	*k[b-]
*met(C)	*met(C)	*met(C)	*met(C)
*M4/4	*M4/4	*M4/4	*M4/4
4r	4r	2cc'\	2ccc'\
4CC'/	4C'/	.	.
4EE'/	4E'/	2g'/	2gg'\
4GG'/	4G'/	.	.
=14!|:	=14!|:	=14!|:	=14!|:
*>B	*>B	*>B	*>B
4C'/	4c'\	2r	2r
4D'\	4d'\	.	.
4E-'\	4e-'\	4r	4r
4En'\	4en'\	4g/	4gg\
=15	=15	=15	=15
4F'\	4f'\	2b-'\	2bb-'\
4A'\	4a'\	.	.
4c'\	4cc'\	2f'/	2ff'\
4d'\	4f'\	.	.
=16	=16	=16	=16
4e-'\	4f'\	1r	1r
4en'\	4f'\	.	.
4f'\	4f'\	.	.
4f'\	4a'\	.	.
=17	=17	=17	=17
*clefC4	*	*	*
[1f	[1a	1r	4r
.	.	.	(4ff\
.	.	.	4ee-\
.	.	.	4dd\
=18	=18	=18	=18
1f_	(4a\]	1r	4cc\
.	4b-\	.	4dd\
.	4a\	.	2ee-\)
.	4cc\)	.	.
=19	=19	=19	=19
1f_	2.b-\	1r	4r
.	.	.	(4ee-\
.	.	.	4dd\
.	(4e-\	.	4cc\
=20	=20	=20	=20
1f_	4d\	1r	4b-\
.	4c\	.	4cc\
.	4B-/	.	2dd\)
.	4b-\)	.	.
=21	=21	=21	=21
1f_	(2.g\ 2.b-\	1r	4r
.	.	.	(4dd\
.	.	.	4cc\
.	4dd\	.	4b-\
=22	=22	=22	=22
1f_	4cc\	1r	4a/
.	4dd\	.	4b-\
.	4cc\	.	4a/
.	4b-\	.	4g/
=23	=23	=23	=23
1f_	4a\	2r	4f/
.	2b-\	.	4g/
.	.	4r	4c/
.	[4cc\)	4b-\ 4gg\	4e/
=24	=24	=24	=24
4f\]	4cc\]	2a'\ 2aa'\	4f/)
(4f\	(4c\	.	(4ff\
4c\	4f\	2a'\ 2ff'\	4aa\
4A\)	4c\)	.	4ccc\
=25	=25	=25	=25
(2F/	(2A/	4r	[1fff)
.	.	(4ff\	.
2A\	2c\	4ee-\	.
.	.	4dd\	.
=26	=26	=26	=26
2F/	2A/	4cc\	4fff\]
.	.	4dd\	(4fff\
2c\)	2a\)	[2ee-\)	4eee-\
.	.	.	4ddd\
=27	=27	=27	=27
(2F/	(2A/	4ee-\]	4ccc\
.	.	(4ee-\	4ddd\
2A\	2c\)	4dd\	2eee-\)
.	.	4cc\	.
=28	=28	=28	=28
2F/	[1d	4b-\	4r
.	.	4cc\	(4eee-\
2B-\)	.	[2dd\)	4ddd\
.	.	.	4ccc\
=29	=29	=29	=29
(2FF/	2d\]	4dd\]	4bb-\
.	.	(4dd\	4ccc\
2BB-/	2D/ 2B-/	4cc\	[2ddd\)
.	.	4b-\	.
=30	=30	=30	=30
2FF/	[1G [1B-	4a/	4ddd\]
.	.	4b-\	(4ddd\
2BB-/	.	4a/	4ccc\
.	.	4g/	4bb-\
=31	=31	=31	=31
2FF/	1G] 1B-]	4f/	4aa\
.	.	4g/	4gg\)
2BB-/	.	4c/	4gg\
.	.	4e/	4b-\ 4gg\
=32	=32	=32	=32
2FF/	1F 1A	4f/	2a\ 2ccc\
.	.	4a/	.
2AA/)	.	4cc\)	4a\ 4aa\
.	.	4cc\	4ff\
=33	=33	=33	=33
*clefF4	*	*	*
4F\	4F/ 4A/	4a\ 4cc\	4f/
4r	4r	4r	4r
4r	4r	4r	4r
4F\	4A/	4a/	4ff\
=34	=34	=34	=34
4E\	4c\	4G/	4g/
4r	4r	4r	4r
4r	4r	4r	4r
4E\	4G/	4c/	4gg\
=35	=35	=35	=35
4D\	4F/	4f/	4a/
4r	4r	4r	4r
4r	4r	4r	4r
4D\	4F/	4f/	4aa\
=36	=36	=36	=36
4D\	4F/	4f/	4b-\
4r	4r	4r	4bb-\
4AA/	4F/	4c/	4cc\
4r	4r	4r	4ccc\
=37	=37	=37	=37
4BB-/	4F/	4B-/	4dd\
4r	4r	4r	4r
4r	4r	4r	4r
4BB-/	4F/	4f/	4ddd\
=38	=38	=38	=38
4GG/	4G/	4b-\	4ee\
4r	4r	4r	4r
4r	4r	4r	4r
4GG/	4G/	4b-\	4eee\
=39	=39	=39	=39
4FF/	4A/	4a/	4ff\
4r	4r	4r	4r
4r	4r	4r	4r
4FF/	4F/	4f/	4fff\
=40	=40	=40	=40
4DD/	4D/	4d/	4dd\
4r	4r	4r	4ddd\
4EE/	4E/	4e/	4ee\
4r	4r	4r	4eee\
=41	=41	=41	=41
4FF'/	4F'/	4A'/	4a'/
4F'\	4A'/	4a'/	4dd'\
4E'\	4Bn'/	4g#'/	4bn'\
4r	4r	4r	4ee'\
=42	=42	=42	=42
1r	1r	1r	4ee'\
.	.	.	4dd#'\
.	.	.	4ee'\
.	.	.	4gg#'\
=43	=43	=43	=43
1r	1r	1r	4bbn'\
.	.	.	4r
.	.	.	4eee'\
.	.	.	4r
=44	=44	=44	=44
1r	1r	1r	1r
=45	=45	=45	=45
*k[f#c#g#]	*k[f#c#g#]	*k[f#c#g#]	*k[f#c#g#]
[1AA	1r	1r	4r
.	.	.	(4dd\
.	.	.	4cc#\
.	.	.	4b\
=46	=46	=46	=46
1AA_	4r	4r	4a/
.	(4Gn/	(4e/	4b\
.	4F#/	4d/	2cc#\)
.	4E/	4c#/	.
=47	=47	=47	=47
1AA_	4D/	4B/	4r
.	4E/	4c#/	(4ee\
.	[2F#/)	[2d/)	4dd\
.	.	.	4cc#\
=48	=48	=48	=48
1AA_	4F#/]	4d/]	4b\
.	(4e\	(4gn/	4cc#\
.	4d\	4f#/	2dd\)
.	4c#\	4e/	.
=49	=49	=49	=49
1AA_	4B/	4d/	4r
.	4c#\	4e/	(4ff#\
.	[2d\)	[2f#/)	4ee\
.	.	.	4dd\
=50	=50	=50	=50
1AA_	(4d\]	(4f#/]	4g#/
.	4G#/)	4e/	4dd\
.	(4G#/	4d/	4b\
.	4A/	4c#/	4ee\)
=51	=51	=51	=51
1AA]	4B/	4d/	(4g#/
.	4E/	4G#/	4dd\
.	4F#/	4A/	4b\
.	4G#/)	4B/	4ee\)
=52	=52	=52	=52
(4BB/	(4G#/	4d/	(4e/
4AA/	4A/	4c#/	4cc#\
4C#/)	4E/)	4e/)	4a/
4c#\	4r	4r	4ee\)
=53	=53	=53	=53
4A\	1r	1r	(4e/
4r	.	.	4cc#\
4E\	.	.	4a/
4r	.	.	4ee\)
=54	=54	=54	=54
4E\	1r	(4c#/	1r
4r	.	4a/	.
4F#\	.	4e/	.
4r	.	4cc#\)	.
=55	=55	=55	=55
(2A\	1r	(4c#/	(4A/
.	.	4a/	4e/
4B\	.	4e/	4c#/
4c#\)	.	4ee\)	4a/)
=56	=56	=56	=56
1B	(4E/	1r	1r
.	4d\	.	.
.	4G#/	.	.
.	4e\)	.	.
=57	=57	=57	=57
4A\	1r	1r	(4e/
4r	.	.	4cc#\
4E\	.	.	4a/
4r	.	.	4ee\)
=58	=58	=58	=58
4E\	1r	(4c#/	1r
4r	.	4a/	.
4F#\	.	4e/	.
4r	.	4cc#\)	.
=59	=59	=59	=59
4F#\	1r	1r	(4A/
4r	.	.	4e/
4E\	.	.	4c#/
4r	.	.	4a/)
=60	=60	=60	=60
1E	(4G#/	(4e/	1r
.	4d\	4b\	.
.	4B/	4g#/	.
.	4g#\)	4dd\)	.
=61	=61	=61	=61
(4AA/	1r	(4cc#\	4aa\
4E\	.	4aa\	4r
4C#/	.	4ee\	4ee\
4A\)	.	4ccc#\)	4r
=62	=62	=62	=62
1r	(4C#/	1r	4ee\
.	4A/	.	4r
.	4E/	.	4ff#\
.	4c#\)	.	4r
=63	=63	=63	=63
1r	(4A/	(4c#/	(2aa\
.	4e\	4cc#\	.
.	4c#\	4a/	4bb\
.	4a\)	4ee\)	4ccc#\)
=64	=64	=64	=64
1r	(4E/	(4g#/	1bb
.	4d\	4b\	.
.	4G#/	4e/	.
.	4d\)	4b\)	.
=65	=65	=65	=65
(4AA/	(4C#/	1r	4aa\
4E\	4A/)	.	4r
4C#/	(4A/	.	4ee\
4A\)	4c#\)	.	4r
=66	=66	=66	=66
4AA/	(4c#\	(4A/	4ee\
4r	4a\)	4e/	4r
4EE/	(4a\	4c#/	4ff#\
4r	4cc#\)	4a/)	4r
=67	=67	=67	=67
4EE/	(4G#/	(4d/	4ff#\
4r	4d\	4g#/	4r
4FF#/	4B/	4d/	4ee\
4r	4g#\)	4b\)	4r
=68	=68	=68	=68
4FF#/	(4A/	(4c#/	[1ee
4r	4c#\	4e/	.
4EE/	4A/)	4c#/)	.
4r	4c#'\	4a'/	.
=69	=69	=69	=69
4FF#/	2a'\	2cc#'\	2.ee\]
4r	.	.	.
4EE/	2B'/	2g#'/	.
4r	.	.	4ee'\
=70	=70	=70	=70
4FF#/	2r	2r	4gg#\
4r	.	.	4bb\
4EE/	4r	4r	4eee\
4r	4G#/	4b\	[4ee\
=71	=71	=71	=71
4FF#/	2B'/	2dd'\	2.ee\]
4r	.	.	.
4EE/	2c#'\	2a'/	.
4r	.	.	4ee'\
=72	=72	=72	=72
4FF#/	1r	1r	4aa\
4r	.	.	4ccc#\
4EE/	.	.	4eee\
4A\	.	.	4ccc#\
=73	=73	=73	=73
2c#'\	2r	2r	2eee'\
2G#'\	4r	4r	2bb'\
.	4E/	4cc#\	.
=74	=74	=74	=74
2r	2c#'\	2ee'\	2r
4r	2G#'/	2b'\	4r
4B\	.	.	4ddd\
=75	=75	=75	=75
2d'\	2r	2r	2fff#'\
2A'\	4r	4r	2ccc#'\
.	4B/	4dd\	.
=76	=76	=76	=76
2r	2d'\	2ff#'\	2r
4r	4A'/	4cc#'\	4r
4C#/	4A'/	4c#'/	4ee'\
=77	=77	=77	=77
2E\	4G#/	4B/	4g#'/
.	4B\ 4d\	4g#/	4b'\
4BB/	4B\ 4d\	4g#/	4ee'\
4BB/	4B\ 4d\	4g#/	4gg#'\
=78	=78	=78	=78
2C#/	4c#\	4e/	4aa\
.	4c#\	4e/ 4a/	4ccc#\
4AA/	4c#\	4e/ 4a/	4eee\
4AA/	4C#/	4c#/ 4e/	4aaa\
=79	=79	=79	=79
2EE/	2A/	2c#/ 2e/	2cccc#\
2E\	2B\ 2d\	2g#/	2gg#\
=80	=80	=80	=80
*>B1	*>B1	*>B1	*>B1
4AA/	4E/ 4c#/	4a/	4aa\
4r	4r	4r	4r
4r	4r	4r	4r
4EE/	4E/	4c#/	4a/
=81	=81	=81	=81
2EE'/	2E'/	2c#'/	2cc#'\
2EE#'/	2E#'/	2B'/ 2d'/	2g#'/
=82	=82	=82	=82
2r	2r	2r	2r
4r	4r	4r	4r
4FFn/	4Fn/	4cn/	4aa\
=83	=83	=83	=83
4CCn'/	4Cn'/	2ccn'\	2cccn'\
4CC'/	4C'/	.	.
4EE'/	4E'/	2gn'/	2ggn'\
4GGn'/	4Gn'/	.	.
=84:|!	=84:|!	=84:|!	=84:|!
*>B2	*>B2	*>B2	*>B2
4AA/	4E/ 4c#/	4a/	4aa\
4r	4r	4r	4r
2r	4r	4r	4r
.	4F#/	4c#/	4a/
=85	=85	=85	=85
2r	2E'/	2a'/	2cc#'\
4r	2E'/	2B'/	2g#'/
4BB/	.	.	.
=86	=86	=86	=86
*k[]	*k[]	*k[]	*k[]
2D'\	2r	2r	2r
4AA'/	4r	4r	4r
=!|:	=!|:	=!|:	=!|:
*>C	*>C	*>C	*>C
4AA/	4A/	4A/	4a/
=87	=87	=87	=87
2Cn/	2cn\	2cn/	2ccn\
4GG#/	4G#/	4G#/	4g#/
4C/	4c\	4c/	4cc\
=88	=88	=88	=88
2E\	2e\	2e/	2ee\
4BB/	4B/	4B/	4b\
4E\	4E/	4e/	4ee\
=89	=89	=89	=89
2Gn\	2Gn/	2gn/	2ggn\
4D\	4D/	4d/	4dd\
4r	4r	4r	4r
=90	=90	=90	=90
2r	2r	2r	2r
4r	4r	4r	4r
4DD/	4D/	4d/	4dd\
=91	=91	=91	=91
2FFn/	2Fn/	2fn/	2ffn\
2CCn/	2Cn/	2cn/	2ccn\
=92	=92	=92	=92
2r	2r	4r	1r
.	.	(4ee\	.
4r	4r	4dd\	.
*clefC4	*	*	*
4e\	4A/	4cc\	.
=93	=93	=93	=93
2g'\	4G/	4b\	4r
.	4r	4cc\	(4gg\
2d'\	4G/	2dd\)	4ff\
.	4r	.	4ee\
=94	=94	=94	=94
2r	1r	4r	4dd\
.	.	(4d/	4ee\
4r	.	4c/	2ff\)
4d\	.	4B/	.
=95	=95	=95	=95
2f'\	4r	4A/	4r
.	(4f\	4B/	(4aa\
2c'\	4e\	4c/	4gg\
.	4d\	4d/	4ff\
=96	=96	=96	=96
2r	4c\	4e/	4ee\
.	4d\	4d/	4ff\
4r	4e\)	4c/)	4gg\)
*clefF4	*	*	*
4F\	[4a\	[4cc\	4ccc'\
=97	=97	=97	=97
4E\	4a\]	4cc\]	2eee'\
4r	(4c\	(4ee\	.
4E\	4G#/	4dd\	2bb'\
4r	4A/	4cc\	.
=98	=98	=98	=98
2r	4G#/	4b\	2r
.	4A/	4cc\	.
4r	[2B/)	4dd\)	4r
4F\	.	(4a/	4bb'\
=99	=99	=99	=99
4E\	4B/]	4g#/	2ddd'\
4r	(4d\	4b\	.
4E\	4c\	4a/	2aa'\
4r	4B/	4dd\	.
=100	=100	=100	=100
2r	4A/	4cc\	2r
.	4B/	4dd\	.
4r	4c\)	4ee\	4r
[4C/	4A/	4ff\)	4ddd\
=101	=101	=101	=101
4C/]	2c'\	4ee\	4ddd\
(4C/	.	4r	4r
4BB-/	2Gn'/	4ee\	4ccc\
4AA/	.	4r	4r
=102	=102	=102	=102
4GG/	1r	2r	4r
4AA/	.	.	(4ccc\
[2BB-/)	.	4r	4bb-\
.	.	4c/ 4gn/	4aa\
=103	=103	=103	=103
4BB-/]	4r	2b-'\	4gg\)
(4BB-/	(4d-\	.	4r
4AA/	4c\	2f'/	4r
4GG/	4B-/	.	4ccc'\
=104	=104	=104	=104
4FF/	4A-/	2r	2fff'\
4GG/	4B-/	.	.
4AA/)	4c\	4r	4ccc'\
4AA/	4dn\)	4f'/	4aa\
=105	=105	=105	=105
4AA/	(4c#\	2a'/	(4ee\
4r	4d\	.	4ff\
4r	4c#\)	4e'/	4gg\)
(4B-\	(4c#\	4e'/	(4gg\
=106	=106	=106	=106
4A\	4d\	2f'/	4dd\
4G\	4B-/	.	4ee\
4F\)	4A/)	4d'/	4ff\)
4r	4d'\	(4ff\	4r
=107	=107	=107	=107
4r	2f'\	4cc#\	1r
(4B-\	.	4dd\	.
4A\	4c#'\	4ee'\)	.
4G\	4c#'\	(4b-\	.
=108	=108	=108	=108
4F\	2d'\	2.a/)	4r
4G\	.	.	(4bb-\
4F\	4A'/	.	[2aa\)
4E\)	[4A/	(4g/	.
=109	=109	=109	=109
2D\	2A/]	4f/	4aa\]
.	.	4g/	(4bb-\
4AA/	[2C#/	4f/	4aa\
4AA/	.	4e/	4gg\
=110	=110	=110	=110
2BB-/	(4C#/]	4g/	4ee\
.	4D/	4f/	4ff\
4GG/	4E/	4e/	4gg\
4GG/	4F/	4d/	4aa\
=111	=111	=111	=111
2BB-/	4E/	4c#/	4gg\
.	4F/	4d/	4ff\
4GG/	4G/	4e/	4ee\
4GG/	[4B-/	4f/	4dd\
=112	=112	=112	=112
2AA/	4B-/]	4e/	4cc#\
.	4A/	4f/	4dd\
4AA/	4C#/	4g/	4ee\
4AA/	4E/)	4a/)	4cc#\)
=113	=113	=113	=113
4DD'/	4D'/	4f#'/ 4a'/	4dd'\
4r	4r	4r	4r
2r	4d\	4f#/	4a/
.	4r	4r	4r
=114	=114	=114	=114
1r	4d\	4f#/	4a/
.	4r	4r	4r
.	4c#\	4g/	4b\
.	4r	4r	4r
=115	=115	=115	=115
*k[f#c#]	*k[f#c#]	*k[f#c#]	*k[f#c#]
1r	(2Bn/	(2f#/	(2dd\
.	4A/	4cc#\	4ee\
.	4G#/)	4dd\)	4ff#\)
=116	=116	=116	=116
*clefC4	*	*	*
(2e\	1A	1cc#	1ee
4f#\	.	.	.
4gn\)	.	.	.
=117	=117	=117	=117
4f#\	4d\	4a/	4dd\
4r	4r	4r	4r
2r	4d\	4f#/	4a/
.	4r	4r	4r
=118	=118	=118	=118
1r	4d\	4f#/	4a/
.	4r	4r	4r
.	4c#\	4g/	4b\
.	4r	4r	4r
=119	=119	=119	=119
1r	4B/	4g/	4b\
.	4r	4r	4r
.	4c#\	4g/	4a/
.	4r	4r	4r
=120	=120	=120	=120
4D/	1d	1f#	1a
4r	.	.	.
4AA/	.	.	.
4r	.	.	.
=121	=121	=121	=121
4AA/	4dd\	4ff#\	4ddd\
4r	4r	4r	4r
4BB/	4dd\	4ff#\	4aa\
4r	4r	4r	4r
=122	=122	=122	=122
4BB/	4dd\	4ff#\	4aa\
4r	4r	4r	4r
4AA/	4dd\	4gg\	4bb\
4r	4r	4r	4r
=123	=123	=123	=123
1AA	4dd\	4gg\	4bb\
.	4r	4r	4r
.	4dd\	4ff#\	4aa\
.	4r	4r	4r
=124	=124	=124	=124
4g\	4cc#\	4ee\	1aa
4r	4r	4r	.
4f#\	4a\	4dd\	.
4r	4r	4r	.
=125	=125	=125	=125
1f#	1a	1dd	4gg\
.	.	.	4r
.	.	.	4ff#\
.	.	.	4r
=126	=126	=126	=126
4e\	4f#\	4a/	1ff#
4r	4r	4r	.
4d\	4f#\	4a/	.
4r	4r	4r	.
=127	=127	=127	=127
1d	1f#	1a	4ee\
.	.	.	4r
.	.	.	4dd\
.	.	.	4r
=128	=128	=128	=128
4d\	4f#\	4a/	[1dd
4r	4r	4r	.
4cn\	4f#\	4a/	.
4r	4r	4r	.
=129	=129	=129	=129
(4cn\	[1f#	[1a	1dd_
4d\	.	.	.
4c\	.	.	.
4B\	.	.	.
=130	=130	=130	=130
4A\	1f#]	1a]	1dd_
4B\	.	.	.
[2cn\)	.	.	.
=131	=131	=131	=131
4c\]	[1g	([1b	1dd_
(4cn\	.	.	.
4B\	.	.	.
4A\	.	.	.
=132	=132	=132	=132
4G/	2g\]	2b\]	1dd_
4A\	.	.	.
4B-\	2g\	2b-\)	.
4cn\)	.	.	.
=133	=133	=133	=133
[1d	4f#\	(4a/	4dd\]
.	(4E/	4g/	(4dd\
.	4F#/	4a/	4ccn\
.	4G/	4e/	4b-\
=134	=134	=134	=134
1d_	4A/	4f#/	4a/
.	4G/	4g/	4b-\
.	[2F#/)	4a/	[2ccn\)
.	.	4e-/	.
=135	=135	=135	=135
1d_	4F#/]	4d/	4cc\]
.	(4F#/	4a/	(4ccn\
.	4G/	4d/	4b-\
.	4A/	4cn/	4a/
=136	=136	=136	=136
4d\]	4B-/	4B-/	4g/
(4Cn/	4cn\	4A/	4a/
4BB-/	4d\	4G/	[2b-\)
4AA/	4ccn\)	4A/)	.
=137	=137	=137	=137
*k[b-]	*k[b-]	*k[b-]	*k[b-]
*clefF4	*	*	*
4GG/	2dd\	(4B-/	4b-\]
4AA/	.	4G/	(4cc\
[2BB-/)	[2dd-\	4g/	4b-\
.	.	4f/	4a-/
=138	=138	=138	=138
(4BB-/]	2.dd-\]	4e/	4g/
4C/	.	4f/	4a-/
4BB-/	.	4g/	[2b-\
4AA-/)	4d-\	4f/)	.
=139	=139	=139	=139
(4GG/	4B-/	4e/	4b-\])
4AA-/	4r	4r	4r
4GG/	4F/	(4c/	4a-/
4FF/)	4r	4d-/)	4r
=140	=140	=140	=140
(4FF/	4D-/	4d-/	4a-/
4GG/	4r	4r	4r
4FF/	4E-/	(4B-/	4g/
4EE-/)	4r	4c/)	4r
=141	=141	=141	=141
(4EE-/	4C/	4c/	4g/
4FF/	4r	4r	4r
4EE-/	4D-/	(4A-/	4f/
4DD-/)	4r	4B-/)	4r
=142	=142	=142	=142
(4DD-/	4D-/	4B-/	4f/
4EE-/	4r	4r	4r
4DD-/	(4D-/	(4G/	(4e/
4CC/)	4C/)	4A-/)	4e-/)
=143	=143	=143	=143
4CC/	4F/	4A-/	4e-/
4r	4r	4r	4r
4FF/	4F/	4A-/	4d-/
4r	4r	4r	4r
=144	=144	=144	=144
4FF/	4F/	4A-/	4d-/
4r	4r	4r	4r
4AA-/	4F/	4A-/	4c/
4r	4r	4r	4r
=145	=145	=145	=145
4CC/	4F/	4A-/	4e-/
4r	4r	4r	4r
4FF/	4F/	4A-/	(4.d-
4r	4r	4r	.
.	.	.	16c/LL
.	.	.	16d-/JJ)
=146	=146	=146	=146
4AA-/	4F/	(4A-/	(4c/
4r	4r	4Bn/	4bn\
4C/	4En/ 4Gn/	4c/	4cc\
4r	4r	4d-/)	4dd-\)
=147	=147	=147	=147
*k[b-e-a-d-]	*k[b-e-a-d-]	*k[b-e-a-d-]	*k[b-e-a-d-]
4BB-/	4G/	(4d-/	(4dd-\
4r	4r	4e-/	4ee-\
4AA-/	(4En/	4d-/	4dd-\
4r	4F/)	4c/)	4cc\)
=148	=148	=148	=148
4AA-/	4F/	(4c/	(4cc\
4r	4r	4d-/	4dd-\
4GG/	(4Dn/	4c/	4cc\
4r	4E-/)	4B-/)	4b-\)
=149	=149	=149	=149
4GG/	4E-/	(4B-/	(4b-\
4r	4r	4c/	4cc\
4FF/	(4C/	4B-/	4b-\
4r	4D-/)	4A-/)	4a-/)
=150	=150	=150	=150
4FF/	4D-/	(4A-/	(4a-/
4r	4r	4B-/	4b-\
(4FF-/	(4B-/	4A-/	4a-/
4EE-/)	4c\)	4G/)	4g/)
=151	=151	=151	=151
4EE-/	4f\	4A-/	4c/
4r	4r	4r	4r
4DD-/	4F/	4A-/	4f/
4r	4r	4r	4r
=152	=152	=152	=152
4DD-/	4F/	4A-/	4f/
4r	4r	4r	4r
4CC/	4F/	4A-/ 4f/	4a-/
4r	4r	4r	4r
=153	=153	=153	=153
4EE-/	4F/	4A-/	4c/
4r	4r	4r	4r
(4.DD-	4F/	4A-/	4f/
.	4r	4r	4r
16CC/LL	.	.	.
16DD-/JJ)	.	.	.
=154	=154	=154	=154
1CC	4F/	4A-/	4a-/
.	4r	4r	4r
.	4En/	4G/	4cc\
.	4r	4r	4r
=155	=155	=155	=155
4CC/	4F/	4A-/	4e-/
4r	4r	4r	4r
4FF/	4F/	4A-/	(4.d-
4r	4r	4r	.
.	.	.	16c/LL
.	.	.	16d-/JJ)
=156	=156	=156	=156
4FF/	4F/	4A-/	1c
4r	4r	4r	.
4AA-/	4F/	4A-/	.
4r	4r	4r	.
=157	=157	=157	=157
4CC/	4f\	4a-/	4ee-\
4r	4r	4r	4r
4FF/	[2f\	[2a-/	[2dd-\
4r	.	.	.
=158	=158	=158	=158
4AA-/	1f\]	1a-/]	1dd-\]
4r	.	.	.
4C/	.	.	.
4r	.	.	.
.	16enq\LL	16gq/LL	16ccq\LL
.	16fq\JJ	16a-q/JJ	16dd-q\JJ
=159	=159	=159	=159
4C/	(4en\	(4g/	[1cc
4r	4c\	4a-/	.
2r	4B-/	4g/	.
.	4A-/	4f/	.
=160	=160	=160	=160
4r	4G/	4en/	1cc]
(4A-\	4F/	4d-/	.
4G\	4En/	4c/	.
4F\)	4D-/)	4B-/)	.
=161	=161	=161	=161
(4F\	(4C/	(4A-/	[1gg
4BB-/	4c\	4G/)	.
4AA-/	4F/	2r	.
4GG/	4E-/	.	.
=162	=162	=162	=162
4FF/	4D-/	4r	1gg]
4EE-/	4C/)	(4ccc\	.
4DD-/	(4f\	4bb-\	.
4CC/)	4c\) 4en\	4aa-\	.
=163	=163	=163	=163
(4B-\	(4een\	4gg\	[1ccc
4A-\	4cc\	4ff\	.
4G\	4b-\	4een\	.
4F\	4a-\	4dd-\	.
=164	=164	=164	=164
4En\	4g\	4cc\	1ccc]
4D-\	4f\	4b-\	.
4C/	4c\	4a-/	.
4G\)	4B-/)	4en/)	.
=165	=165	=165	=165
*M3/2	*M3/2	*M3/2	*M3/2
*MM80	*MM80	*MM80	*MM80
4.GG/	4.G/	16cc\LL 16een\	16ccc\LL
.	.	16cc\ 16ee\	16ccc\
.	.	16cc\ 16ee\	16ccc\
.	.	16cc\ 16ee\	16ccc\
.	.	16cc\ 16ee\	16ccc\
.	.	16cc\ 16ee\	16ccc\
8EEn'/	8En'/	16cc\ 16ee\	16ccc\
.	.	16cc\JJ 16ee\	16ccc\JJ
2AA-/	2A-/	16cc\LL 16ee\	16ccc\LL
.	.	16cc\ 16ee\	16ccc\
.	.	16cc\ 16ee\	16ccc\
.	.	16cc\ 16ee\	16ccc\
.	.	16cc\ 16ee\	16ccc\
.	.	16cc\ 16ee\	16ccc\
.	.	16cc\ 16ee\	16ccc\
.	.	16cc\JJ 16ee\	16ccc\JJ
2r	[2c\ [2a-\	16cc\LL 16ee\	16ccc\LL
.	.	16cc\ 16ee\	16ccc\
.	.	16cc\ 16ee\	16ccc\
.	.	16cc\ 16ee\	16ccc\
.	.	16cc\ 16ee\	16ccc\
.	.	16cc\ 16ee\	16ccc\
.	.	16cc\ 16ee\	16ccc\
.	.	16cc\JJ 16ee\	16ccc\JJ
=166	=166	=166	=166
1.r	8c\L] 8a-\]	16cc\LL 16een\	16ccc\LL
.	.	16cc\ 16ee\	16ccc\
.	(8B-\	16cc\ 16ee\	16ccc\
.	.	16cc\ 16ee\	16ccc\
.	8A-\	16cc\ 16ee\	16ccc\
.	.	16cc\ 16ee\	16ccc\
.	8G\J	16cc\ 16ee\	16ccc\
.	.	16cc\JJ 16ee\	16ccc\JJ
.	8A-\L	16cc\LL 16ee\	16ccc\LL
.	.	16cc\ 16ee\	16ccc\
.	8c\	16cc\ 16ee\	16ccc\
.	.	16cc\ 16ee\	16ccc\
.	8f\	16cc\ 16ee\	16ccc\
.	.	16cc\ 16ee\	16ccc\
.	8g\J	16cc\ 16ee\	16ccc\
.	.	16cc\JJ 16ee\	16ccc\JJ
.	8a-\L	16cc\LL 16ff\	16ccc\LL
.	.	16cc\ 16ff\	16ccc\
.	8f\	16cc\ 16ff\	16ccc\
.	.	16cc\ 16ff\	16ccc\
.	8c\	16cc\ 16ff\	16ccc\
.	.	16cc\ 16ff\	16ccc\
.	8A-\J)	16cc\ 16ff\	16ccc\
.	.	16cc\JJ 16ff\	16ccc\JJ
=167	=167	=167	=167
4.C/	4.c\	16an\LL 16ff\	16ccc\LL
.	.	16a\ 16ff\	16ccc\
.	.	16a\ 16ff\	16ccc\
.	.	16a\ 16ff\	16ccc\
.	.	16a\ 16ff\	16ccc\
.	.	16a\ 16ff\	16ccc\
8AAn/	8An'/	16a\ 16ff\	16ccc\JJ
.	.	16a\JJ 16ff\	16ccc\LL
2D-\	2d-\	16a\LL 16ff\	16ccc\
.	.	16a\ 16ff\	16ccc\
.	.	16a\ 16ff\	16ccc\
.	.	16a\ 16ff\	16ccc\
.	.	16a\ 16ff\	16ccc\
.	.	16a\ 16ff\	16ccc\
.	.	16a\ 16ff\	16ccc\JJ
.	.	16a\JJ 16ff\	16ccc\LL
[2F\	2r	16a\LL 16ff\	16ccc\
.	.	16a\ 16ff\	16ccc\
.	.	16a\ 16ff\	16ccc\
.	.	16a\ 16ff\	16ccc\
.	.	16a\ 16ff\	16ccc\
.	.	16a\ 16ff\	16ccc\
.	.	16a\ 16ff\	16ccc\JJ
.	.	16a\JJ 16ff\	16r
=168	=168	=168	=168
(8F\L]	2r	16an\LL 16ff\	16ccc\LL
.	.	16a\ 16ff\	16ccc\
8E-\	.	16a\ 16ff\	16ccc\
.	.	16a\ 16ff\	16ccc\
8D-\	.	16a\ 16ff\	16ccc\
.	.	16a\ 16ff\	16ccc\
8C\J	.	16a\ 16ff\	16ccc\
.	.	16a\JJ 16ff\	16ccc\JJ
8D-\L	2r	16a\LL 16ff\	16ccc\LL
.	.	16a\ 16ff\	16ccc\
8F\	.	16a\ 16ff\	16ccc\
.	.	16a\ 16ff\	16ccc\
8B-\	.	16a\ 16ff\	16ccc\
.	.	16a\ 16ff\	16ccc\
8c\J)	.	16a\ 16ff\	16ccc\
.	.	16a\JJ 16ff\	16ccc\JJ
4d-\	(8d-\L	16b-\LL 16ff\	16bb-\LL
.	.	16b-\ 16ff\	16bb-\
.	8f\	16b-\ 16ff\	16bb-\
.	.	16b-\ 16ff\	16bb-\
4r	8b-\	16b-\ 16ff\	16bb-\
.	.	16b-\ 16ff\	16bb-\
.	8dd-\J)	16b-\ 16ff\	16bb-\
.	.	16b-\JJ 16ff\	16bb-\JJ
=169	=169	=169	=169
4.D-\	4.d-\	16dd-\LL 16ff\	16bb-\LL
.	.	16dd-\ 16ff\	16bb-\
.	.	16dd-\ 16ff\	16bb-\
.	.	16dd-\ 16ff\	16bb-\
.	.	16dd-\ 16ff\	16bb-\
.	.	16dd-\ 16ff\	16bb-\
8BB-'/	8B-'/	16dd-\ 16ff\	16bb-\
.	.	16dd-\JJ 16ff\	16bb-\JJ
2En\	2en\	16dd-\LL 16gg\	16bb-\LL
.	.	16dd-\ 16gg\	16bb-\
.	.	16dd-\ 16gg\	16bb-\
.	.	16dd-\ 16gg\	16bb-\
.	.	16dd-\ 16gg\	16bb-\
.	.	16dd-\ 16gg\	16bb-\
.	.	16dd-\ 16gg\	16bb-\
.	.	16dd-\JJ 16gg\	16bb-\JJ
2r	2r	16dd-\LL 16gg\	16bb-\LL
.	.	16dd-\ 16gg\	16bb-\
.	.	16dd-\ 16gg\	16bb-\
.	.	16dd-\ 16gg\	16bb-\
.	.	16dd-\ 16gg\	16bb-\
.	.	16dd-\ 16gg\	16bb-\
.	.	16dd-\ 16gg\	16bb-\
.	.	16dd-\JJ 16gg\	16bb-\JJ
=170	=170	=170	=170
16DD-/LL	16D-/LL	16een\LL 16gg\	16dd-\LL 16bb-\
16DD-/	16D-/	16ee\ 16gg\	16dd-\ 16bb-\
16DD-/	16D-/	16ee\ 16gg\	16dd-\ 16bb-\
16DD-/	16D-/	16ee\ 16gg\	16dd-\ 16bb-\
16DD-/	16D-/	16ee\ 16gg\	16dd-\ 16bb-\
16DD-/	16D-/	16ee\ 16gg\	16dd-\ 16bb-\
16DD-/	16D-/	16ee\ 16gg\	16dd-\ 16bb-\
16DD-/JJ	16D-/JJ	16ee\JJ 16gg\	16dd-\JJ 16bb-\
4DD-/	4D-/	16ee\LL 16gg\	16dd-\LL 16bb-\
.	.	16ee\ 16gg\	16dd-\ 16bb-\
.	.	16ee\ 16gg\	16dd-\ 16bb-\
.	.	16ee\ 16gg\	16dd-\ 16bb-\
4r	4r	16ee\ 16gg\	16dd-\ 16bb-\
.	.	16ee\ 16gg\	16dd-\ 16bb-\
.	.	16ee\ 16gg\	16dd-\ 16bb-\
.	.	16ee\JJ 16gg\	16dd-\JJ 16bb-\
2r	2r	4ee\ 4gg\	4dd-\ 4bb-\
.	.	4r	4r
=171	=171	=171	=171
16DD-/LL	16D-/LL	2r	2r
16DD-/	16D-/	.	.
16DD-/	16D-/	.	.
16DD-/	16D-/	.	.
16DD-/	16D-/	.	.
16DD-/	16D-/	.	.
16DD-/	16D-/	.	.
16DD-/JJ	16D-/JJ	.	.
4CC/	4C/	16een\LL 16gg\	16dd-\LL 16bb-\
.	.	16ee\ 16gg\	16dd-\ 16bb-\
.	.	16ee\ 16gg\	16dd-\ 16bb-\
.	.	16ee\ 16gg\	16dd-\ 16bb-\
4r	4r	16ee\ 16gg\	16dd-\ 16bb-\
.	.	16ee\ 16gg\	16dd-\ 16bb-\
.	.	16ee\ 16gg\	16dd-\ 16bb-\
.	.	16ee\JJ 16gg\	16dd-\JJ 16bb-\
2r	2r	4ee\ 4gg\	4dd-\ 4bb-\
.	.	4r	4r
=172	=172	=172	=172
16CC/LL	16C/LL	2r	2r
16CC/	16C/	.	.
16CC/	16C/	.	.
16CC/	16C/	.	.
16CC/	16C/	.	.
16CC/	16C/	.	.
16CC/	16C/	.	.
16CC/JJ	16C/JJ	.	.
4CC/	4C/	16een\LL 16gg\	16dd-\LL 16bb-\
.	.	16ee\ 16gg\	16dd-\ 16bb-\
.	.	16ee\ 16gg\	16dd-\ 16bb-\
.	.	16ee\ 16gg\	16dd-\ 16bb-\
4r	4r	16ee\ 16gg\	16dd-\ 16bb-\
.	.	16ee\ 16gg\	16dd-\ 16bb-\
.	.	16ee\ 16gg\	16dd-\ 16bb-\
.	.	16ee\JJ 16gg\	16dd-\JJ 16bb-\
2r	2r	4ee\ 4gg\	4dd-\ 4bb-\
.	.	4r	4r
=173	=173	=173	=173
16CC/LL	16C/LL	2r	2r
16CC/	16C/	.	.
16CC/	16C/	.	.
16CC/	16C/	.	.
16CC/	16C/	.	.
16CC/	16C/	.	.
16CC/	16C/	.	.
16CC/JJ	16C/JJ	.	.
16CC/LL	16C/LL	16een\LL 16gg\	16dd-\LL 16bb-\
16CC/	16C/	16ee\ 16gg\	16dd-\ 16bb-\
16CC/	16C/	16ee\ 16gg\	16dd-\ 16bb-\
16CC/	16C/	16ee\ 16gg\	16dd-\ 16bb-\
16CC/	16C/	16ee\ 16gg\	16dd-\ 16bb-\
16CC/	16C/	16ee\ 16gg\	16dd-\ 16bb-\
16CC/	16C/	16ee\ 16gg\	16dd-\ 16bb-\
16CC/JJ	16C/JJ	16ee\JJ 16gg\	16dd-\JJ 16bb-\
4CC/	4C/	4ee\ 4gg\	4dd-\ 4bb-\
4DD-/	4D-/	4f/	4aa-\
=174	=174	=174	=174
4.D-\	2r	2ff'\	2fff'\
8AA-/	.	.	.
16E-\LL	4.G-/	2cc'\	2ccc'\
16E-\	.	.	.
16E-\	.	.	.
16E-\	.	.	.
16E-\	.	.	.
16E-\	.	.	.
16E-\	8E-/	.	.
16E-\JJ	.	.	.
4E-\	16g-\LL	4r	4r
.	16g-\	.	.
.	16g-\	.	.
.	16g-\JJ	.	.
4r	4g-\	4e-/	4ee-\
=175	=175	=175	=175
4.E-\	2r	2g-'/	2gg-'\
8BB-/	.	.	.
16F\LL	4.A-/	2dn'/	2ddn'\
16F\	.	.	.
16F\	.	.	.
16F\	.	.	.
16F\	.	.	.
16F\	.	.	.
16F\	8F/	.	.
16F\JJ	.	.	.
4F\	16a-\LL	4r	4r
.	16a-\	.	.
.	16a-\	.	.
.	16a-\JJ	.	.
4r	4a-\	4f/	4ff\
=176	=176	=176	=176
4.FF/	2r	2a-'/	2aa-'\
8CC/	.	.	.
16GG/LL	4.B-/	2en'/	2een'\
16GG/	.	.	.
16GG/	.	.	.
16GG/	.	.	.
16GG/	.	.	.
16GG/	.	.	.
16GG/	8En/	.	.
16GG/JJ	.	.	.
16CC/LL 16GG/	16d-\LL	2r	2r
16CC/ 16GG/	16d-\	.	.
16CC/ 16GG/	16d-\	.	.
16CC/ 16GG/	16d-\JJ	.	.
16CC/ 16GG/	4d-\	.	.
16CC/ 16GG/	.	.	.
16CC/ 16GG/	.	.	.
16CC/JJ 16GG/	.	.	.
=177	=177	=177	=177
16CC/LL 16GG/	2r	16dd-\LL	2r
16CC/ 16GG/	.	16dd-\	.
16CC/ 16GG/	.	16dd-\	.
16CC/ 16GG/	.	16dd-\JJ	.
16CC/ 16GG/	.	4dd-\	.
16CC/ 16GG/	.	.	.
16CC/ 16GG/	.	.	.
16CC/JJ 16GG/	.	.	.
16CC/LL 16GG/	16dd-\LL	16bb-\LL	2r
16CC/ 16GG/	16dd-\	16bb-\	.
16CC/ 16GG/	16dd-\	16bb-\	.
16CC/ 16GG/	16dd-\JJ	16bb-\JJ	.
16CC/ 16GG/	4dd-\	4bb-\	.
16CC/ 16GG/	.	.	.
16CC/ 16GG/	.	.	.
16CC/JJ 16GG/	.	.	.
16CC/LL 16GG/	16B-/LL	16en/LL	16ddd-\LL
16CC/ 16GG/	16B-/	16e/	16ddd-\
16CC/ 16GG/	16B-/	16e/	16ddd-\
16CC/JJ 16GG/	16B-/JJ	16e/JJ	16ddd-\JJ
8CC/L 8GG/	(8G/L 8B-/	(8e/L	(16ddd-\LL
.	.	.	16een\
8CC/J 8C/	8F/J)	8An/J)	16ff\)
.	.	.	16aan'\JJ
=178	=178	=178	=178
*MM320	*MM320	*MM320	*MM320
*k[b-]	*k[b-]	*k[b-]	*k[b-]
*met(C)	*met(C)	*met(C)	*met(C)
*M4/4	*M4/4	*M4/4	*M4/4
[1CC [1C	(4E/	(4G/	2ccc\
.	4G/	4c/)	.
.	4E/	(4c/	4gg'\
.	4G/)	4e/)	4gg'\
=179	=179	=179	=179
1CC_ 1C_	(4E/	(4G/	2bb-\
.	4G/	4c/)	.
.	4A/	(4c/	4ff'\
.	4c\	4f/)	4aa'\
=180	=180	=180	=180
1CC_ 1C_	4B-/	(4c/	(4gg\
.	4A/	4f/	4ff\)
.	4G/	4c/	4ee'\
.	4F/	4A/	4ff'\
=181	=181	=181	=181
2CC/] 2C/]	4E/	4G/	(4gg\
.	4G/	4B-/	4ee\)
4FF/ 4C/	4F/)	4A/)	4ff'\
4r	4f'\	4a'/	4aa'\
=182	=182	=182	=182
1r	(4e\	2cc\	(4gg\
.	4a\)	.	4ff\)
.	4b-'\	4g'/	4ee'\
.	4B-'/	4g'/	4ff'\
=183	=183	=183	=183
1r	(4B-/	2b-\	(4gg\
.	4c\)	.	4ee\)
.	4A'/	4f/	4ff'\
.	4d'\	4f/ 4dd/	4fff'\
=184	=184	=184	=184
1r	2f\	(4cc\	(4eee-\
.	.	4b-\)	4ddd\)
.	4c\	4a'/	4eee-'\
.	4c\	4f'/ 4b-'/	4eee-'\
=185	=185	=185	=185
*	*	*^	*
2r	2e-\	(4cc/	2f\	(4aa\
.	.	4a/)	.	4ccc\)
4r	4B-/	4d/ 4b-/	2r	4ddd'\
4BB-/	4B-/	4d/	.	4g/
*	*	*v	*v	*
=186	=186	=186	=186
2D\	(4A/	(4f#/	(4c/
.	4G/)	4g/)	4Bn/)
4AA/	4F#'/	4cc'\	4c'/
4AA/	4G'/	4cc'\	4c'/
=187	=187	=187	=187
2C/	(4A/	(4f#/	(4e-/
.	4F#/)	4a/)	4d/)
4GG/	4G'/	4b-'\	4d'/
4FF/	4A'/	4a'/	4ff'\
=188	=188	=188	=188
(4EE/	2A/	(4g/	2aa\
4DD/)	.	4f/)	.
4CC#'/	4A/	4g'/	4ee\
4DD'/	4A/	4g'/	4ee\
=189	=189	=189	=189
(4EE/	(4A/	(4f/	2gg\
4CC#/)	4G/)	4e/)	.
4DD'/	4F'/	4f'/	4dd\
4CCn'/	4A-'/	4f'/	4dd\
=190	=190	=190	=190
(4C/	(4A-/	(4f/	2ff\
4BBn/)	4G/)	4d/)	.
4C'/	4G'/	4e-'/	4cc\
4BB-'/	4G-'/	4e-'/	4cc\
=191	=191	=191	=191
(4BB-/	(4G-/	(4e-/	2ee-\
4AA/)	4F/)	4c/)	.
4BB-'/	4F'/	4d'/	4b-\
4BB-'/	4F'/	4d'/	4bb-\
=192	=192	=192	=192
4B-\	4d\	4f/	4b-\
4r	4r	4r	4r
4r	4r	4r	4r
4B-\	4d\	4f/	4bb-\
=193	=193	=193	=193
4A\	4c\	4f/	4cc\
4r	4r	4r	4r
4r	4r	4r	4r
4A\	4c\	4f/	4ccc\
=194	=194	=194	=194
4G\	4B-/	4b-\	4dd\
4r	4r	4r	4r
4r	4r	4r	4r
4G\	4B-/	4b-\	4ddd\
=195	=195	=195	=195
4G\	4B-/	4b-\	4ee-\
4r	4r	4r	4eee-\
4D\	4B-/	4b-\	4ff\
4r	4r	4r	4fff\
=196	=196	=196	=196
4E-\	4B-/	4b-\	4gg\
4r	4r	4r	4r
4r	4r	4r	4r
4E-\	4G/	4B-/	4ggg\
=197	=197	=197	=197
4C/	4E-/	4e-/	4a/
4r	4r	4r	4r
4r	4r	4r	4r
4C/	4e-\	4a/	4aa\
=198	=198	=198	=198
4BB-/	4d\	4dd\	4b-\
4r	4r	4r	4r
4r	4r	4r	4r
4BB-/	4B-/	4b-\	4bb-\
=199	=199	=199	=199
4C/	4c\	4cc\	4cc\
4r	4r	4r	4ccc\
4D\	4D/ 4d/	4dd\	4dd\
4r	4r	4r	4ddd\
=200	=200	=200	=200
4BB-'/	4G'/	4d'/	4dd'\
4GG'/	4d'\	4b-'\	4gg'\
4AA'/	4c#'\	4a'/	4ee'\
4r	4r	4r	4aa'\
=201	=201	=201	=201
1r	1r	1r	4aa'\
.	.	.	4gg#'\
.	.	.	4aa'\
.	.	.	4ccc#'\
=202	=202	=202	=202
1r	1r	1r	4eee'\
.	.	.	4r
.	.	.	4aaa'\
.	.	.	4r
=203	=203	=203	=203
1r	1r	1r	1r
=204	=204	=204	=204
*k[f#c#]	*k[f#c#]	*k[f#c#]	*k[f#c#]
4r	[1D	1r	1r
*clefC4	*	*	*
(4d\	.	.	.
4cn\	.	.	.
4B\	.	.	.
=205	=205	=205	=205
4A\	1D_	4r	4r
4B\	.	(4a/	(4aa\
[2cn\)	.	4g/	4gg\
.	.	4f#/	4ff#\
=206	=206	=206	=206
4c\]	1D_	4g/	4gg\
(4cn\	.	4a/	4aa\
4B\	.	[2b\)	[2bb\)
4A\	.	.	.
=207	=207	=207	=207
4G/	1D_	4b\]	4bb\]
4A\	.	(4b\	(4bb\
[2B\)	.	4a/	4aa\
.	.	4g/	4gg\
=208	=208	=208	=208
4B\]	1D_	4f#/	4ff#\
(4g\	.	4e/	4ee\
4f#\	.	4f#/	4ff#\
4e\	.	4g/)	4gg\)
=209	=209	=209	=209
4d\	1D_	(4B/	(4b\
4c#\	.	4A/	4a/
4d\	.	4B/	4b\
4e\)	.	4c#/	4cc#\
=210	=210	=210	=210
(4B\	1D_	4d/	4dd\
4A\	.	4c#/	4cc#\
4B\	.	4d/	4dd\
4c#\	.	4e/)	4ee\)
=211	=211	=211	=211
4d\	(4D/]	4d/	4dd\
4c#\	4C#/	4r	4r
4d\	4D/	2r	2r
4e\)	4E/)	.	.
=212	=212	=212	=212
*k[b-]	*k[b-]	*k[b-]	*k[b-]
2.f\	[1F	(4A/	(4f/
.	.	4a/	4ff\
.	.	4cc\	4ee-\
(4f\	.	4b-\	4dd\
=213	=213	=213	=213
4e-\	1F_	4a/	4cc\
4d\	.	4b-\	4dd\
4c\	.	4a/	2ee-\)
4d\)	.	4b-\)	.
=214	=214	=214	=214
2.e-\	1F_	(2cc\	4r
.	.	.	(4ee-\
.	.	4b-\	4dd\
4e-\	.	4a/	4cc\
=215	=215	=215	=215
4d\	1F_	4f/	4b-\
4c\	.	4e-/	4cc\
4B-\	.	4d/	2dd\)
4c\	.	4e-/)	.
=216	=216	=216	=216
&(2.d\&)	1F_	2.f/	4r
.	.	.	(4dd\
.	.	.	4cc\
(4d\	.	(4f/	4b-\
=217	=217	=217	=217
4c\	1F]	4e-/	4a/
4B-\	.	4d/	4g/
4A\	.	4c/	4a/
4G/)	.	4B-/)	4b-\)
=218	=218	=218	=218
(2.G/	[1F [1G	2.B-/	(4e/
.	.	.	4b-\
.	.	.	4g/
4A\	.	[4c/	4cc\)
=219	=219	=219	=219
4B-\	1F] 1G]	(4c/]	(4e/
4c\	.	4e/	4b-\
4d\	.	4f/	4g/
4e\)	.	4g/)	4cc\)
=220	=220	=220	=220
*clefC4	*	*	*
4f\	4F/ 4A/	4c/	(4a/
4r	4r	4r	4ff\
4c\	2r	2r	4a/
4r	.	.	4aa\)
=221	=221	=221	=221
4c\	1r	(4ff\	1r
4r	.	4aa\	.
4d\	.	4ff\	.
4r	.	4ccc\)	.
=222	=222	=222	=222
(2f\	1r	1r	(4a/
.	.	.	4ff\
4g\	.	.	4cc\
4a\)	.	.	4ff\)
=223	=223	=223	=223
1g	1r	(4B-/	1r
.	.	4e/	.
.	.	4c/	.
.	.	4e/)	.
=224	=224	=224	=224
4f\	1r	1r	(4a/
4r	.	.	4ff\
4c\	.	.	4a/
4r	.	.	4aa\)
=225	=225	=225	=225
4c\	1r	(4ff\	1r
4r	.	4aa\	.
4d\	.	4ff\	.
4r	.	4ccc\)	.
=226	=226	=226	=226
4d\	1r	1r	(4A/
4r	.	.	4f/
4c\	.	.	4A/
4r	.	.	4a/)
=227	=227	=227	=227
1c	(4f\	(4a/	4ddd\
.	4cc\	4ff\	4r
.	4a\	4cc\	4ccc\
.	4cc\)	4ff\)	4r
=228	=228	=228	=228
*clefF4	*	*	*
(4FF/	1r	1r	4ff\
4C/	.	.	4r
4AA/	.	.	4cc\
4F\)	.	.	4r
=229	=229	=229	=229
1r	(4A/	(4c/	4cc\
.	4f\	4a/	4r
.	4c\	4f/	4dd\
.	4a\)	4cc\)	4r
=230	=230	=230	=230
1r	1r	(4f/	(2ff\
.	.	4cc\	.
.	.	4a/	4gg\
.	.	4ff\)	4aa\)
=231	=231	=231	=231
1r	(4C/	(4e/	1gg
.	4B-/	4cc\	.
.	4G/	4b-\	.
.	4c\)	4ee\)	.
=232	=232	=232	=232
(4FF/	4c\	4a/	4ff\
4C/	4r	4r	4r
4AA/	2r	2r	4ccc\
4F\)	.	.	4r
=233	=233	=233	=233
4F\	(4F/	(4A/	4ccc\
4r	4c\	4f/)	4r
4C/	4A/	(4f/	4ddd\
4r	4f\)	4a/)	4r
=234	=234	=234	=234
4C/	(4A/	(4f/	4ddd\
4r	4f\	4a/	4r
4D\	4A/	4f/	4ccc\
4r	4a\)	4cc\)	4r
=235	=235	=235	=235
4D\	(4f\	(4a/	[1ccc
4r	4a\	4cc\	.
4C/	4f\)	4a/)	.
4r	4F/	4a/	.
=236	=236	=236	=236
4D\	2F'/	2cc'\	1ccc_
4r	.	.	.
4C'/	2E'/	2g'/	.
4E'\	.	.	.
=237	=237	=237	=237
4G'\	2r	2r	1ccc_
4c'\	.	.	.
4e'\	4r	4r	.
4C/	4e\	4g/	.
=238	=238	=238	=238
4D\	2e'\	2b-'\	1ccc_
4r	.	.	.
4C/	2A'/	2f'/	.
4F\	.	.	.
=239	=239	=239	=239
4A\	1r	1r	2.ccc\]
4c\	.	.	.
4f\	.	.	.
4f\	.	.	4aa'\
=240	=240	=240	=240
2f'\	2r	2r	2ccc'\
2e'\	4r	4r	2gg'\
.	4F/	4A/	.
=241	=241	=241	=241
2r	2F'/	2c'/	2r
4r	2E'/	2G'/	4r
4g\	.	.	4bb-\
=242	=242	=242	=242
2g'\	2r	2r	2ddd'\
2f'\	4r	4r	2aa'\
.	4G/	4B-/	.
=243	=243	=243	=243
2r	2G'/	2d'/	2r
4r	4F'/	4A'/	4r
4AA/	4F/	4c/	4ff\
=244	=244	=244	=244
2C/	4B-/	4c/	4ee\
.	4c\	4b-\	4gg\
4GG/	4c\	4b-\	4bb-\
4GG/	4c\	4b-\	4ddd\
=245	=245	=245	=245
2AA/	4c\	4cc\	4ccc\
.	4c\	4cc\	4fff\
4FF/	4c\	4a/	4fff\
4FF/	4F/ 4A/	4cc\	4aaa\
=246	=246	=246	=246
2CC/	2F/ 2A/	2a\ 2ccc\	2aaa\
2C/	2G/ 2B-/	2g/ 2b-/	2ee\
=247	=247	=247	=247
*>C1	*>C1	*>C1	*>C1
4FF/	4F/ 4A/	4f/ 4a/	4ff\
4r	4r	4r	4r
2r	2r	2r	2r
=248:|!	=248:|!	=248:|!	=248:|!
*>C2	*>C2	*>C2	*>C2
4FF/	4F/ 4A/	4f/ 4a/	4ff\
4r	4r	4r	4r
4r	2r	2r	4r
4C#/	.	.	4f/
=249	=249	=249	=249
*>D	*>D	*>D	*>D
2C#/	2r	2r	2a/
[2C#/	4r	4r	[2e/
.	4B-/	4G/	.
=250	=250	=250	=250
2.C#;/]	2G/	2B-/	2.e;/]
.	4E;/	4G;/	.
4F#\	4r	4r	4b-\
=251	=251	=251	=251
2F#\	2r	2r	2dd\
[2F#\	4r	4r	[2a/
.	4Bn/	4d/	.
=252	=252	=252	=252
2.F#;\]	2c\	2e-/	2.a;/]
.	4A;/	4c;/	.
*clefC4	*	*	*
4e-\	4r	4r	4gg\
=253	=253	=253	=253
2e-\	2r	4r	2bb-\
.	.	4g/	.
[2e-\	4r	2b-\	[2ff#\
.	4f#\	.	.
=254	=254	=254	=254
2.e-;\]	2.b-;\	2.f#;/	2.ff#;\]
4r	4r	4r	4r
=255	=255	=255	=255
4fn\	4fn\	4fn/	4ffn\
4r	4r	4r	4r
4f\	4f\	4a/	4cc\
4r	4r	4r	4r
=256	=256	=256	=256
4f\	4f\	4a/	4cc\
4r	4r	4r	4r
4en\	4f\	4b-\	4dd\
4r	4r	4r	4r
=257	=257	=257	=257
4d\	4f\	4a/	4ff\
4r	4r	4r	4r
4c\	4cc\	4ee\	4gg\
4Bn\	4cc\	4ff\	4aa\
=258	=258	=258	=258
4c\	4cc\	4ee\	4gg\
4r	4r	4r	4r
2r	2r	2r	2r
=259	=259	=259	=259
4f\	4cc\	4a/	4ff\
4r	4r	4r	4r
4f\	4f\	4a\ 4ff\	4ccc\
4r	4r	4r	4r
=260	=260	=260	=260
4d\	4f\	4a\ 4ff\	4ccc\
4r	4r	4r	4r
4c\	4f\	4a\ 4ff\	4ddd\
4r	4r	4r	4r
=261	=261	=261	=261
4B-\	4g\	4ff\	4ddd\
4r	4r	4r	4r
4c\	4g\	4ee\	4ccc\
4r	4r	4r	4r
=262	=262	=262	=262
4f\	4a\	4ff\	4ccc\
4r	4r	4r	4r
2r	2r	2r	2r
=263	=263	=263	=263
4f\	4a\	4ff\	4ff\
4r	4r	4r	4aa\
4f\	4a\	4cc\	4ccc\
4r	4r	4r	4fff\
=264	=264	=264	=264
4f\	4a\	4cc\	4fff\
4r	4r	4r	4fff\
4e\	4b-\	4dd\	4fff\
4r	4r	4r	4fff\
=265	=265	=265	=265
4d\	4f\	4ff\	4ggg\
4r	4r	4r	4fff\
4c\	4e\ 4cc\	4gg\	4ggg\
4Bn\	4f\ 4cc\	4aa\	4aaa\
=266	=266	=266	=266
4c\	4e\ 4cc\	4gg\	4aaa\
4r	4r	4r	4ggg\
2r	2r	2r	4fff\
.	.	.	4ggg\
=267	=267	=267	=267
4f\	4a\	4ff\	4ff\
4r	4r	4r	4aa\
4f\	4a\	4cc\	4ccc\
4r	4r	4r	4fff\
=268	=268	=268	=268
4d\	4f\ 4a\	4cc\	4fff\
4r	4r	4r	4fff\
4c\	4f\ 4a\	4dd\	4fff\
4r	4r	4r	4fff\
=269	=269	=269	=269
4B-\	4g\	4dd\	4fff\
4r	4r	4r	4ggg\
4c\	4e\	4cc\	4ggg\
4r	4r	4r	4ggg\
=270	=270	=270	=270
4f\	4a\	4cc\	4ggg\
4r	4c\	4r	4fff\
4r	4C/	4r	4eee\
4C/	4r	4aa\	4fff\
=271	=271	=271	=271
4CC/	4r	2ccc\	4r
4r	4c\	.	4fff\
4r	4C/	4gg\	4r
4C/	4r	4gg\	4eee\
=272	=272	=272	=272
4CC/	4r	2bb-\	4r
4r	4c\	.	4eee\
4r	4C/	4ff\	4r
4C/	4r	4ff\	4ddd\
=273	=273	=273	=273
4CC/	4r	2aa\	4r
4r	4c\	.	4ddd\
4r	4C/	4ee\	4r
4C/	4r	4ee\	4ccc\
=274	=274	=274	=274
4CC/	4r	4gg\	4r
4r	4c\	4dd\	4bb-\
4r	4C/	4ff\	4r
4C/	4r	4cc\	4aa\
=275	=275	=275	=275
4CC/	4r	2ccc\	4r
4C/	4f\	.	4ff\
4CC/	4r	4gg\	4r
4C/	4e\	4gg\	4ee\
=276	=276	=276	=276
4CC/	4r	2bb-\	4r
4C/	4e\	.	4ee\
4CC/	4r	4ff\	4r
4C/	4d\	4ff\	4dd\
=277	=277	=277	=277
4CC/	4r	2aa\	4r
4C/	4d\	.	4dd\
4CC/	4r	4ee\	4r
4C/	4c\	4ee\	4cc\
=278	=278	=278	=278
4CC/	4r	4gg\	4r
4C/	4B-/	4dd\	4b-\
4CC/	4B-/	4ff\	4b-\
4AA/	4A/	4a/	4a\ 4aa\
=279	=279	=279	=279
2C/	2c\	2cc\	2ccc\
4GG/	4G/	4g/	4gg\
4GG/	4G/	4g/	4gg\
=280	=280	=280	=280
2AA/	2A/	2a/	2aa\
4FF/	4F/	4f/	4ff\
4AA/	4A/	4a/	4a\ 4aa\
=281	=281	=281	=281
2C'/	2c'\	2a'\ 2aa'\	2ccc'\
2CC'/	2C'/	2b-'\ 2gg'\	2eee'\
=282	=282	=282	=282
4FF/	4F/	4a\ 4ff\	4a\ 4fff\
4r	4r	4r	4r
2r;	2r;	2r;	2r;
==	==	==	==
*-	*-	*-	*-
!!!ENC: Craig Stuart Sapp
!!!END: 2004/09/04/
